miami/assets/images/logo.svg

<?xml version="1.0" encoding="UTF-8"?>
<svg width="116px" height="76px" viewBox="0 0 116 76" version="1.1" xmlns="http://www.w3.org/2000/svg" xmlns:xlink="http://www.w3.org/1999/xlink">
    <!-- Generator: Sketch 42 (36781) - http://www.bohemiancoding.com/sketch -->
    <title>Page 1</title>
    <desc>Created with Sketch.</desc>
    <defs></defs>
    <g id="Page-1" stroke="none" stroke-width="1" fill="none" fill-rule="evenodd">
        <g fill="#FFFFFF">
            <path d="M77.2682694,35.1726707 L77.4406912,35.1726707 C77.6418068,35.1726707 77.8044054,35.1052014 77.8044054,34.9433782 C77.8044054,34.8012014 77.6991946,34.7050381 77.469385,34.7050381 C77.3732218,34.7050381 77.3067864,34.7148612 77.2682694,34.7239088 L77.2682694,35.1726707 Z M77.2589633,36.0497728 L76.8949905,36.0497728 L76.8949905,34.4860857 C77.0387184,34.4669565 77.240351,34.4382626 77.4980789,34.4382626 C77.7950993,34.4382626 77.9292626,34.4860857 78.034732,34.5620857 C78.1298612,34.6287796 78.1970721,34.7427796 78.1970721,34.8958136 C78.1970721,35.0860721 78.0536027,35.2104122 77.8718748,35.267283 L77.8718748,35.2864122 C78.0251673,35.3339769 78.1016844,35.4580585 78.149766,35.6679633 C78.1970721,35.9065619 78.2353306,35.991868 78.2645415,36.0497728 L77.881181,36.0497728 C77.8336163,35.991868 77.8044054,35.8582218 77.7570993,35.6679633 C77.7281469,35.5053646 77.6322422,35.4298816 77.4311265,35.4298816 L77.2589633,35.4298816 L77.2589633,36.0497728 Z M77.4980789,33.9907932 C76.818732,33.9907932 76.2916435,34.5525211 76.2916435,35.2385891 C76.2916435,35.9347388 76.818732,36.4881946 77.5172082,36.4881946 C78.1970721,36.4977592 78.7148544,35.9347388 78.7148544,35.2484122 C78.7148544,34.5525211 78.1970721,33.9907932 77.507902,33.9907932 L77.4980789,33.9907932 Z M77.5172082,33.674902 C78.4077524,33.674902 79.1163102,34.3617456 79.1163102,35.2385891 C79.1163102,36.1162082 78.4077524,36.8123578 77.507902,36.8123578 C76.6075347,36.8123578 75.8894122,36.1162082 75.8894122,35.2385891 C75.8894122,34.3617456 76.6075347,33.674902 77.507902,33.674902 L77.5172082,33.674902 Z" id="Fill-1"></path>
            <polygon id="Fill-3" points="54.7967755 0.000568707483 54.1954966 5.17006803e-05 44.2141633 19.3859973 27.4401361 9.10428299 26.4441224 9.07171156 34.998517 35.5760653 40.7913197 34.790215 35.7704082 20.0234667 46.9617959 26.5258612 49.0070748 22.3241469 49.0031973 22.3215619 54.4309932 11.5241333 59.0137415 21.0536027 63.9059184 18.2015347"></polygon>
            <polygon id="Fill-5" points="81.3116762 9.10436054 54.3761388 25.4691769 50.3481388 23.1160204 48.3561116 27.3363469 54.0346558 30.6353673 54.3761388 30.6353673 54.7178803 30.6353673 72.9816626 20.0235442 67.9610095 34.7902925 73.7535537 35.5761429 82.3082068 9.07178912"></polygon>
            <polygon id="Fill-7" points="14.2201946 53.3964109 0.968017687 41.2697578 -7.75510204e-05 41.2697578 -7.75510204e-05 62.3638939 4.24997687 62.3638939 4.24997687 49.6320844 13.8779361 58.4307646 14.5195415 58.4307646 23.6640993 49.6695673 23.6640993 62.3638939 27.9144122 62.3638939 27.9144122 41.2697578 26.9406299 41.2697578"></polygon>
            <polygon id="Fill-10" points="33.1489252 62.3639456 37.3994966 62.3639456 37.3994966 41.5869932 33.1489252 41.5869932"></polygon>
            <path d="M59.4163864,54.8782558 L49.0289442,54.8782558 L54.1685088,47.2356027 L59.4163864,54.8782558 Z M53.8391755,40.9839565 L39.474917,62.3639973 L44.0217333,62.3639973 L46.5915156,58.5257388 L61.931366,58.5257388 L64.5637061,62.3639973 L69.2772571,62.3639973 L54.6136517,40.9839565 L53.8391755,40.9839565 Z" id="Fill-12"></path>
            <polygon id="Fill-13" points="85.2455293 53.3964109 71.9930939 41.2697578 71.0249986 41.2697578 71.0249986 62.3638939 75.2755701 62.3638939 75.2755701 49.6320844 84.9024952 58.4307646 85.5443592 58.4307646 94.6891755 49.6695673 94.6891755 62.3638939 98.9400054 62.3638939 98.9400054 41.2697578 97.9662231 41.2697578"></polygon>
            <polygon id="Fill-14" points="104.174027 62.3639456 108.424857 62.3639456 108.424857 41.5869932 104.174027 41.5869932"></polygon>
            <path d="M6.01397823,75.9707891 C2.61672653,75.9707891 0.206440816,74.5461769 0.206440816,72.0237007 C0.206440816,69.4882993 2.77958367,67.9644218 5.93901224,67.9644218 C8.3368898,67.9644218 9.51101224,68.4144762 9.97321633,68.5892245 L9.97321633,69.5133741 L9.92358367,69.5508571 C9.33626395,69.1504354 8.26244082,68.5517415 5.97649524,68.5517415 C3.29167891,68.5517415 1.39297143,69.7005306 1.39297143,72.0237007 C1.39297143,74.2592381 3.02929796,75.3834694 6.01397823,75.3834694 C8.07502585,75.3834694 9.11162449,74.8462993 10.1479646,74.0345986 L10.2105224,74.0596735 L10.2105224,75.0466395 C9.66146122,75.3589116 8.27459048,75.9707891 6.01397823,75.9707891" id="Fill-15"></path>
            <path d="M16.7673837,75.3833401 C19.5775741,75.3833401 21.2014925,74.1469184 21.2014925,71.9984966 C21.2014925,69.8379252 19.4902,68.5516122 16.7673837,68.5516122 C14.0445673,68.5516122 12.383683,69.8133673 12.383683,71.9741973 C12.383683,74.1223605 13.9698599,75.3833401 16.7673837,75.3833401 M16.7924585,75.9706599 C13.869819,75.9706599 11.1971524,74.6592721 11.1971524,71.9984966 C11.1971524,69.2263061 14.0068259,67.964551 16.7924585,67.964551 C19.565166,67.964551 22.3877646,69.2009728 22.3877646,71.9741973 C22.3877646,74.6341973 19.714581,75.9706599 16.7924585,75.9706599" id="Fill-16"></path>
            <path d="M24.1354803,68.0644626 L25.1097796,68.0644626 C27.3830585,70.2007347 30.1800653,72.6981361 32.4657524,74.709034 C32.4908272,72.9478503 32.4908272,69.7134558 32.4657524,68.1019456 L32.5156435,68.0644626 L33.1401878,68.0644626 L33.1903374,68.1148707 C33.1401878,70.3496327 33.1401878,73.4594286 33.1903374,75.807932 L33.1277796,75.8583401 L32.2036299,75.8583401 C30.2426231,73.9598912 27.0206367,71.0744762 24.8093986,69.1382857 C24.7850993,70.6993878 24.7721741,73.8727755 24.8093986,75.8211156 L24.7600245,75.8583401 L24.1225551,75.8583401 L24.0855891,75.8211156 C24.1225551,73.8970748 24.1225551,69.9127619 24.0855891,68.1019456 L24.1354803,68.0644626 Z" id="Fill-17"></path>
            <path d="M36.4496,75.221517 C37.1235184,75.2832993 37.5239401,75.3957483 39.2471238,75.3957483 C42.6443755,75.3957483 44.2305524,74.1469184 44.2305524,72.0732041 C44.2305524,69.8004422 42.5567429,68.5516122 39.185083,68.5516122 C37.8610286,68.5516122 37.2240762,68.6640612 36.4496,68.7762517 C36.4118585,70.050932 36.4240082,73.1105782 36.4496,75.221517 L36.4496,75.221517 Z M35.388185,75.8339116 C35.4375592,73.435 35.4375592,69.9875986 35.388185,68.1767823 L35.4375592,68.1271497 C36.3991918,68.0896667 37.2240762,67.964551 39.4221306,67.964551 C42.607151,67.964551 45.417083,69.2764558 45.417083,72.0489048 C45.417083,74.5220068 42.6947837,75.9706599 39.4221306,75.9706599 C37.4737905,75.9706599 36.3244844,75.8584694 35.4375592,75.870619 L35.388185,75.8339116 Z" id="Fill-18"></path>
            <path d="M52.1859946,75.3833401 C54.9959265,75.3833401 56.6198449,74.1469184 56.6198449,71.9984966 C56.6198449,69.8379252 54.9082939,68.5516122 52.1859946,68.5516122 C49.4629197,68.5516122 47.8017769,69.8133673 47.8017769,71.9741973 C47.8017769,74.1223605 49.3882122,75.3833401 52.1859946,75.3833401 M52.2108109,75.9706599 C49.2881714,75.9706599 46.6155048,74.6592721 46.6155048,71.9984966 C46.6155048,69.2263061 49.4251782,67.964551 52.2108109,67.964551 C54.9835184,67.964551 57.8063755,69.2009728 57.8063755,71.9741973 C57.8063755,74.6341973 55.1331918,75.9706599 52.2108109,75.9706599" id="Fill-19"></path>
            <path d="M64.0873878,75.8584435 L63.1004218,75.8584435 L63.0631973,75.8338857 C63.1130884,73.4349741 63.1130884,69.9004571 63.0631973,68.1017905 L63.1130884,68.064566 L64.0873878,68.064566 L64.1370204,68.1149741 C64.0995374,69.3260626 64.0873878,70.9246476 64.0873878,72.5483075 C66.6473469,70.874498 68.5088299,69.4506612 70.3576463,68.064566 L71.7561497,68.064566 L71.780966,68.1149741 C70.4194286,68.9261578 68.7588027,70.037981 67.0348435,71.2371782 C68.4708299,72.5604571 70.4447619,74.3218993 72.2933197,75.8080354 L72.2555782,75.8584435 L70.7689252,75.8584435 C69.0705578,74.2347837 67.7842449,73.1105524 66.1983265,71.824498 L64.0873878,73.2977088 C64.0995374,74.184117 64.1119456,75.0464844 64.1370204,75.8209605 L64.0873878,75.8584435 Z" id="Fill-20"></path>
            <path d="M73.6416476,75.8210898 C73.6912803,73.4229537 73.6912803,69.9129946 73.6416476,68.1148449 L73.6788721,68.0644367 L74.6655796,68.0644367 L74.7152122,68.1019197 C74.6655796,70.7994027 74.6777293,73.2975796 74.7028041,75.8210898 L74.6529129,75.8585728 L73.6788721,75.8585728 L73.6416476,75.8210898 Z" id="Fill-21"></path>
            <path d="M77.0254313,68.0644626 L77.9997306,68.0644626 C80.272751,70.2007347 83.0705333,72.6981361 85.3564789,74.709034 C85.3815537,72.9478503 85.3815537,69.7134558 85.3564789,68.1019456 L85.4063701,68.0644626 L86.0306558,68.0644626 L86.0802884,68.1148707 C86.0306558,70.3496327 86.0306558,73.4594286 86.0802884,75.807932 L86.0177306,75.8583401 L85.094098,75.8583401 C83.1333497,73.9598912 79.9108463,71.0744762 77.6998667,69.1382857 C77.6747918,70.6993878 77.6629007,73.8727755 77.6998667,75.8211156 L77.650234,75.8583401 L77.0127646,75.8583401 L76.9760571,75.8211156 C77.0127646,73.8970748 77.0127646,69.9127619 76.9760571,68.1019456 L77.0254313,68.0644626 Z" id="Fill-22"></path>
            <path d="M93.5115891,75.9707891 C90.1518204,75.9707891 87.7787592,74.5715102 87.7787592,72.0107755 C87.7787592,69.5376735 90.3891265,67.9644218 93.461181,67.9644218 C96.0219156,67.9644218 97.2205959,68.402068 97.6835755,68.6013741 L97.6835755,69.6384898 L97.6329088,69.6630476 C97.0714395,69.1889524 96.046732,68.5517415 93.4989224,68.5517415 C90.7761061,68.5517415 88.9652898,69.7134558 88.9652898,72.0107755 C88.9652898,74.3347211 90.5261333,75.3834694 93.5115891,75.3834694 C95.0850993,75.3834694 96.0340653,75.0962721 96.920732,74.7591837 C96.9463238,73.8727755 96.9463238,73.3730884 96.9085823,72.0487755 L96.958732,71.9986259 L97.9327728,71.9986259 L97.9829224,72.0358503 C97.9327728,73.3097551 97.9327728,74.022449 97.9829224,75.1709796 C96.7465007,75.6582585 95.4847456,75.9707891 93.5115891,75.9707891" id="Fill-23"></path>
            <path d="M105.913186,72.3858122 C104.701581,72.1865061 102.840098,72.3612544 101.204547,71.986166 C100.092982,71.7364517 99.5056626,71.1623156 99.5056626,70.2128327 C99.5056626,68.8642204 100.805159,67.9643701 103.665499,67.9643701 C105.975744,67.9643701 107.099976,68.4394993 107.549254,68.6884381 L107.549254,69.6004381 L107.486697,69.6255129 C106.962452,69.1889007 105.837962,68.5516898 103.602424,68.5516898 C100.992057,68.5516898 100.355363,69.3132408 100.355363,70.0249007 C100.355363,70.6621116 100.780084,71.0245333 101.603935,71.186615 C102.865431,71.4371048 104.639023,71.2990639 106.125418,71.5120707 C107.424656,71.6992272 108.198615,72.2237306 108.198615,73.2975537 C108.198615,74.8090231 106.81252,75.9707374 103.57735,75.9707374 C101.241771,75.9707374 99.8680844,75.4206422 99.3185061,75.0587374 L99.3185061,74.0469551 L99.3686558,74.0223973 C100.280139,74.8214313 101.504411,75.3834177 103.639907,75.3834177 C106.337907,75.3834177 107.274207,74.609717 107.274207,73.622234 C107.274207,72.9974313 106.837078,72.5354857 105.913186,72.3858122" id="Fill-24"></path>
            <path d="M115.473263,43.9239415 L115.383045,42.483819 C115.373997,42.2945946 115.373997,42.0699551 115.365208,41.799302 L115.338324,41.799302 C115.274732,42.0151524 115.202868,42.3031252 115.131004,42.5285401 L114.690256,43.887234 L114.186174,43.887234 L113.754215,42.4926082 C113.709235,42.3126898 113.628065,42.0151524 113.574038,41.799302 L113.547154,41.799302 C113.547154,42.0239415 113.538365,42.2671932 113.529059,42.483819 L113.439358,43.9239415 L112.97095,43.9239415 L113.151385,41.4753973 L113.889154,41.4753973 L114.303276,42.672268 C114.366351,42.861751 114.410814,43.0408939 114.465358,43.2937102 L114.483195,43.2937102 C114.537222,43.0778599 114.600038,42.861751 114.645018,42.6906218 L115.068188,41.4753973 L115.779072,41.4753973 L115.95899,43.9239415 L115.473263,43.9239415 Z M112.827222,41.4753973 L112.827222,41.8799551 L112.043956,41.8799551 L112.043956,43.9239415 L111.55797,43.9239415 L111.55797,41.8799551 L110.784011,41.8799551 L110.784011,41.4753973 L112.827222,41.4753973 Z" id="Fill-25"></path>
        </g>
    </g>
</svg>

<svg width="116" height="76" viewBox="0 0 116 76" xmlns="http://www.w3.org/2000/svg"><title>Page 1</title><g fill="#c10b6f" fill-rule="evenodd"><path d="M77.268 35.173h.173c.2 0 .363-.068.363-.23 0-.142-.105-.238-.335-.238a.906.906 0 0 0-.2.019v.449zm-.009.877h-.364v-1.564c.144-.019.345-.048.603-.048.297 0 .431.048.537.124.095.067.162.18.162.334 0 .19-.143.314-.325.371v.02c.153.047.23.171.278.381.047.239.085.324.115.382h-.384c-.047-.058-.077-.192-.124-.382-.029-.163-.125-.238-.326-.238h-.172v.62zm.24-2.06c-.68 0-1.207.563-1.207 1.249 0 .696.527 1.25 1.225 1.25.68.009 1.198-.554 1.198-1.24 0-.696-.518-1.258-1.207-1.258h-.01zm.018-.315c.89 0 1.6.687 1.6 1.564s-.71 1.573-1.61 1.573c-.9 0-1.618-.696-1.618-1.573s.719-1.564 1.619-1.564h.01zM54.797 0h-.602l-9.98 19.386L27.44 9.104l-.996-.032L35 35.576l5.792-.786-5.02-14.767 11.19 6.503 2.046-4.202-.004-.002 5.428-10.798 4.583 9.53 4.892-2.852z"/><path d="M81.312 9.104L54.376 25.47l-4.028-2.353-1.992 4.22 5.679 3.3h.683l18.264-10.612L67.96 34.79l5.793.786 8.554-26.504zM14.22 53.396L.968 41.27H0v21.094h4.25V49.632l9.628 8.799h.642l9.144-8.761v12.694h4.25V41.27h-.973zM33.149 62.364h4.25V41.587h-4.25zM59.416 54.878H49.03l5.14-7.642 5.247 7.642zM53.84 40.984l-14.364 21.38h4.547l2.57-3.838h15.34l2.632 3.838h4.713l-14.663-21.38h-.775zM85.246 53.396L71.993 41.27h-.968v21.094h4.25V49.632l9.627 8.799h.642l9.145-8.761v12.694h4.251V41.27h-.974zM104.174 62.364h4.25V41.587h-4.25zM6.014 75.97c-3.397 0-5.808-1.424-5.808-3.946 0-2.536 2.574-4.06 5.733-4.06 2.398 0 3.572.45 4.034.625v.924l-.05.038c-.587-.4-1.66-1-3.947-1-2.684 0-4.583 1.15-4.583 3.473 0 2.235 1.636 3.36 4.621 3.36 2.061 0 3.098-.538 4.134-1.35l.063.026v.987c-.55.312-1.936.924-4.197.924M16.767 75.383c2.81 0 4.434-1.236 4.434-3.385 0-2.16-1.71-3.446-4.434-3.446-2.722 0-4.383 1.261-4.383 3.422 0 2.148 1.586 3.41 4.383 3.41m.025.587c-2.922 0-5.595-1.312-5.595-3.973 0-2.772 2.81-4.033 5.595-4.033 2.773 0 5.596 1.236 5.596 4.01 0 2.66-2.673 3.996-5.596 3.996M24.135 68.064h.975c2.273 2.137 5.07 4.634 7.356 6.645.025-1.761.025-4.996 0-6.607l.05-.038h.624l.05.05c-.05 2.236-.05 5.345 0 7.694l-.062.05h-.924c-1.961-1.898-5.183-4.784-7.395-6.72a241.522 241.522 0 0 0 0 6.683l-.049.037h-.637l-.037-.037c.037-1.924.037-5.908 0-7.72l.05-.037zM36.45 75.222c.674.061 1.074.174 2.797.174 3.397 0 4.984-1.25 4.984-3.323 0-2.273-1.674-3.521-5.046-3.521-1.324 0-1.96.112-2.735.224-.038 1.275-.026 4.335 0 6.446zm-1.062.612c.05-2.399.05-5.846 0-7.657l.05-.05c.961-.037 1.786-.162 3.984-.162 3.185 0 5.995 1.311 5.995 4.084 0 2.473-2.722 3.922-5.995 3.922-1.948 0-3.098-.113-3.984-.1l-.05-.037zM52.186 75.383c2.81 0 4.434-1.236 4.434-3.385 0-2.16-1.712-3.446-4.434-3.446-2.723 0-4.384 1.261-4.384 3.422 0 2.148 1.586 3.41 4.384 3.41m.025.587c-2.923 0-5.595-1.312-5.595-3.973 0-2.772 2.81-4.033 5.595-4.033 2.773 0 5.595 1.236 5.595 4.01 0 2.66-2.673 3.996-5.595 3.996M64.087 75.858H63.1l-.037-.024c.05-2.399.05-5.934 0-7.732l.05-.037h.974l.05.05c-.037 1.211-.05 2.81-.05 4.433 2.56-1.674 4.422-3.097 6.27-4.483h1.4l.024.05c-1.362.811-3.022 1.923-4.746 3.122 1.436 1.323 3.41 3.085 5.258 4.571l-.037.05h-1.487a69.251 69.251 0 0 0-4.57-4.034l-2.112 1.474c.013.886.025 1.748.05 2.523l-.05.037zM73.642 75.821c.05-2.398.05-5.908 0-7.706l.037-.05h.987l.05.037a266.8 266.8 0 0 0-.013 7.72l-.05.037h-.974l-.037-.038zM77.025 68.064H78c2.273 2.137 5.07 4.634 7.356 6.645.026-1.761.026-4.996 0-6.607l.05-.038h.625l.05.05c-.05 2.236-.05 5.345 0 7.694l-.063.05h-.924c-1.96-1.898-5.183-4.784-7.394-6.72a239.509 239.509 0 0 0 0 6.683l-.05.037h-.637l-.037-.037c.037-1.924.037-5.908 0-7.72l.05-.037zM93.512 75.97c-3.36 0-5.733-1.398-5.733-3.96 0-2.472 2.61-4.046 5.682-4.046 2.56 0 3.76.438 4.223.637v1.037l-.051.025c-.562-.474-1.586-1.111-4.134-1.111-2.723 0-4.534 1.161-4.534 3.459 0 2.324 1.561 3.372 4.547 3.372 1.573 0 2.522-.287 3.409-.624.025-.886.025-1.386-.012-2.71l.05-.05h.974l.05.037a32.655 32.655 0 0 0 0 3.135c-1.236.487-2.498.8-4.471.8M105.913 72.386c-1.211-.2-3.073-.025-4.708-.4-1.112-.25-1.7-.824-1.7-1.773 0-1.349 1.3-2.249 4.16-2.249 2.31 0 3.435.475 3.884.724v.912l-.062.026c-.525-.437-1.649-1.074-3.885-1.074-2.61 0-3.247.761-3.247 1.473 0 .637.425 1 1.249 1.162 1.261.25 3.035.112 4.521.325 1.3.187 2.074.712 2.074 1.786 0 1.511-1.386 2.673-4.622 2.673-2.335 0-3.709-.55-4.258-.912v-1.012l.05-.025c.911.8 2.135 1.361 4.27 1.361 2.699 0 3.635-.773 3.635-1.76 0-.626-.437-1.088-1.36-1.237M115.473 43.924l-.09-1.44c-.009-.19-.009-.414-.018-.685h-.027c-.063.216-.135.504-.207.73l-.44 1.358h-.505l-.432-1.394c-.045-.18-.126-.478-.18-.694h-.027c0 .225-.009.468-.018.685l-.09 1.44h-.468l.18-2.449h.738l.414 1.197c.063.19.108.369.162.622h.018c.054-.216.117-.432.162-.603l.423-1.216h.711l.18 2.449h-.486zm-2.646-2.449v.405h-.783v2.044h-.486V41.88h-.774v-.405h2.043z"/></g></svg>
